X:1
T:Pour parvenir
T:Pour parvenir
T:Nicolas Gombert
C:Nicolas Gombert
%%score [ 1 [ 2 3 ] 4 ]
L:1/8
Q:1/4=96
M:2/2
K:C
V:1 treble nm="Superius" snm="S"
V:2 treble-8 nm="Tenor 1" snm="T 1"
V:3 treble-8 nm="Tenor 2" snm="T 2"
V:4 bass nm="Bass" snm="B"
V:1
 z8 | A4 c2 G2 | A2 A2 G3 F | E2 c2 B2 A2- | A2 G2 A2 F2 | A2 E2 F2 F2 | E2 D2 C2 A2 | %7
w: |Pour par- ve-|nir bon pied _|_ bon _ _|_ _ oeil, pour|par- ve- nir bon|pied bon oeil, pour|
 c2 G2 A2 A2 | G3 F E2 c2 | B2 A4 G2 | A4 z4 | z4 B4 | c2 c2 B2 G2 | A2 c3 B A2- | A2 G2 A4 | %15
w: par- ve- nir bon|pied _ _ bon|_ _ _|oeil,|a-|voir fault à l'em-|bu- * * *||
 G3 F E4 | DEFD E2 F2 | E2 D4 C2 | D8 | z8 | G4 G2 G2 | A3 G F2 E2 | D2 F2 E2 D2 | E2 z4 d2 | %24
w: |||che,||et soub- te-|nir _ _ plai-|sir et dueil, _|_ et|
"^b" c3 B A2 _B2 | A2 G2 A4- | A4 F4 | G2 A3 G G2 | A2 A2 G2 F2 | E4 z2 D2- | D2 EF G2 D2 | %31
w: soub- te- nir plai-|sir et dueil,|_ et|soub- te- * nir|plai- sir et _|dueil, d'a-|* mou- * reulx es-|
 F2 E2 D2 F2 | C2 E2 D2 D2 | FG A2 G2 E2- | ED D4 C2 | D8 | z4 z2 D2- | D2 EF G2 D2 | F2 E2 D2 F2 | %39
w: car- mu- * *|* * che, d'a-|mou- * reulx es- car-|* * mu- *|che,|d'a-|* mou- * reulx es-|car- mu- * *|
 C2 E2 D2 D2 | FG A2 G2 E2- | ED D4 C2 | D8 |] %43
w: * * che, d'a-|mou- * reulx es- car|_ _ mu- *|che.|
V:2
 d4 f2 c2 | d2 d2 c2 B2 | A2 f2 e2 d2 | cdec dccB/A/ | B4 A2 d2 | c3 B A2 F2 | G2 D2 E2 F2- | %7
w: Pour par- ve-|nir bon pied bon|oeil, bon pied bon|_ _ _ _ _ _ _ _ _|* oeil, pour|par- * * *|* ve- nir bon|
 FE e4 d2 | e3 d cdef | g2 d2 e4 | c4 z4 | z8 | z4 e4 | f2 f2 e2 c2 | d3 e fd f2 | e2 d3 c c2 | %16
w: _ _ pied bon|oeil, _ _ _ _ _|_ _ _|||a-|voir fault à l'em-|bu- * * * *||
 d2 d2 c2 A2 |"^b" B4 A4- | A4 z2 d2 | d2 d2 e2 d2 | c3 B/A/ B2 B2 | A2 c2 c2 c2 |"^b" d3 c B2 A2 | %23
w: che, à l'em- *|bu- che,|_ et|soub- te- nir plai-|sir _ _ _ et|dueil, et soub- te-|nir _ _ plai-|
"^b" G2 B2 A2 G2 | A4 f4 | e2 d2 e4- | e2 f4 d2- | defd e4 | c2 A2 BcdB | c2 B4 A2- | A2 G4 Bc | %31
w: * sir et dueil,|et soub-|te- nir plai-|* sir et|_ _ _ _ dueil,|d'a- mou- reulx _ _ _|_ es- car-|* mu- * *|
 dA c2 B2 A2- | A2 G2 Bc d2 | A2 c3 BGA | B2 G2 A4 | z2 A2 BcdA | c2 B4 A2- | A2 G4 Bc | %38
w: * * * che, d'a-|* mou- reulx _ _|es- car- * * *|mu- * che,|d'a- mou- reulx es- car-|mu- * che,|_ d'a- mou- reulx|
 dA c2 B2 A2- | A2 G2 Bc d2 | A2 c3 BGA | B2 G2 A4 | A8 |] %43
w: es- car- mu- * che,|_ d'a mou- * reulx|es- car mu- * *||che.|
V:3
 z8 | z8 | A4 c2 G2 | A2 A2 G2 F2 | E4 A4 | z4 A4 | c2 G2 A2 A2- | A2 G2 F4 | E2 e4 c2 | dcBA B4 | %10
w: ||Pour par- ve-|nir bon _ pied|bon oeil,|pour|par- ve nir bon|_ _ pied|bon oeil, _|_ _ _ _ _|
 A2 A2 c2 c2 | B2 A4 G2 | A4 z4 | z4 A4 | _B2 B2 A2 F2 | G4 A4 | F2 D2 A4 | G3 F E4 | D8 | z8 | %20
w: * a- voir fault|à l'em- bu-|che,|a-|voir fault à l'em-|bu- *|||che,||
 z8 | z2 A2 A2 A2 | _B3 A G2 F2 | E2 F2 E2 D2 | E4 z2 d2 | c2 B2 A2 c2 | c2 c2 d3 c | B2 A2 B4 | %28
w: |et soub- te-|nir _ _ plai-|sir et dueil, _|_ et|soub- te- nir plai-|sir et dueil, _|_ _ _|
 A4 z4 | G4 Bc d2 | A2 c2 B4 | A4 z2 D2 | E3 F G2 D2- | D2 E3 F G2- | GF D2 E4 | D4 z4 | G4 Bc d2 | %37
w: |d'a- mou- reulx es-|car- mu- *|che, d'a-|mou- * * reulx|_ es- * *|* * car- mu-|che,|d'a- mou- reulx es-|
 A2 c2 B4 | A4 z2 D2 | E3 F G2 D2- | D2 E3 F G2- | GF D2 E4 | D8 |] %43
w: car- mu- *|che, d'a-|mou- * * reulx|_ es- * *|* * car- mu-|che.|
V:4
 z8 | z8 | z8 | z8 | z4 D,4 | F,2 C,2 D,2 D,2 | C,2 B,,2 A,,4 | z4 A,4 | C2 G,2 A,2 A,2 | %9
w: ||||Pour|par- ve- nir bon|pied bon oeil,|pour|par- ve- nir bon|
 G,2 F,2 E,2 E,2 | F,2 F,2 E,2 C,2 | D,2 F,2 E,4 | A,,4 z4 | z8 | z8 | z4 A,,4 | %16
w: pied bon oeil, a-|voir fault à l'em-|bu- * *|che,|||a-|
 _B,,2 B,,2 A,,2 F,,2 | G,,4 A,,4 | z2 A,2 A,2 A,2 | _B,3 A, G,2 F,2 | E,8 | z8 | z8 | %23
w: voir fault à l'em-|bu- che,|et soub- te-|nir plai- sir et|dueil,|||
"^b" z2 D,2 C,2 B,,2 | A,,4 z4 | z4 z2 A,2 | A,2 A,2 _B,3 A, | G,2 F,2 E,4 | A,,4 z2 D,2 | %29
w: plai- sir et|dueil,|pour|soub- te- nir plai-|sir et dueil,|_ d'a-|
 E,3 F, G,2 D,2 | F,2 E,3 F, G,2 | D,2 A,,2 B,,C, D,2 | A,,2 C,2 G,,G,,B,,C, | D,2 A,,2 C,4 | %34
w: mou- reulx es- car-|mu- che, d'a- mou-|reulx es- car _ mu-|* * che, d'a- mou- reulx|es- car mu-|
 G,,2 B,,2 A,,4 | D,4 z2 D,2 | E,3 F, G,2 D,2 | F,2 E,3 F, G,2 |"^#" D,2 A,,2 B,,C, D,2 | %39
w: |che, d'a-|mou reulx es- car|mu- che, d'a mou-|reilx es- car _ mu-|
 A,,2 C,2 G,,G,,B,,C, | D,2 A,,2 C,4 | G,,2 B,,2 A,,4 | D,8 |] %43
w: * * che, d'a- mou- rulx|es- car mu-||che.|

